X: 1
T: Irene Meldrum's Welcome To Bon Accord
Z: Martin fiddle
S: https://thesession.org/tunes/13364#setting23474
R: strathspey
M: 4/4
L: 1/8
K: Dmaj
a>g f>e d<f A2|A>d B<A d>A B2|A>B d>e f<d a>f| e<d f2 e2e2|
a>g f>e d<f A2|A>d B<A d>A B2|A>B d>A d2 e>f|a<e f2 d2d>e:|
f>g a>g f<a f>e|d>e f<a f<A B2|A>B d>e f<d a>f|e<df2 e2e2|
f>g a>g f<a f>e|d>e f<a f<A B2|A>B d>A d2 e>f|a<e f2d2d>e|
f>g a>g f<a f>e|d>e f<a f<A B2|A>B d>e f<d a>f|e<df2 e2e2|
a>g f>e d<f A2|A>d B<A d>A B2|A>B d>A d2 e>f|a<e f2 d2d2|
|:f2A2 A>B A>B|d>A B<e d<AB2|A>B d>e f<d a>f|e<df2 e2e2|
f2A2 A>B A>B|d>A B<e d<AB2|A>B d>A d2 e>f|a<e f2 d2d>e:|
f>g a>g f<a g>f|e<g f>e d<f e>A|c<e d>e f<d a>f|e<df2 e2e2|
f>g a>g f<a g>f|e<g f>e d<f e>A|c<e d>A d2 e>f|a<e f2 d2d>e|
f>g a>g f<a g>f|e<g f>e d<f e>A|c<e d>e f<d a>f|e<df2 e2e2|
